resources/images/warning-exclamation-dark.svg

<svg width="222" height="101" viewBox="0 0 222 101" fill="none" xmlns="http://www.w3.org/2000/svg">
  <path d="M0.75 50.25H48.75" stroke="#3D444D" />
  <path
    d="M138.972 66.1132L150.559 54.5267C152.92 52.1648 152.92 48.3354 150.559 45.9735L115.277 10.6916C112.915 8.32974 109.085 8.32974 106.723 10.6916L71.4415 45.9735C69.0796 48.3354 69.0796 52.1648 71.4415 54.5267L106.723 89.8087C109.085 92.1706 112.915 92.1706 115.277 89.8087L127.632 77.4532M134.436 70.6492L131.753 73.3324"
    stroke="#FC9F0F" stroke-width="2" stroke-linecap="round" stroke-linejoin="round" />
  <path
    d="M97.014 13.986L104.585 6.41489C108.128 2.87204 113.872 2.87205 117.415 6.41489L154.835 43.8351C158.378 47.378 158.378 53.122 154.835 56.6649L117.415 94.0851C113.872 97.628 108.128 97.628 104.585 94.0851L67.1649 56.6649C63.622 53.122 63.622 47.378 67.1649 43.8351L80.7599 30.2401M93.9899 17.0101L84.1619 26.8381"
    stroke="#FC9F0F" stroke-width="2" stroke-linecap="round" stroke-linejoin="round" />
  <path
    d="M108 37.6185C108 35.6201 109.62 34 111.619 34C113.617 34 115.237 35.6201 115.237 37.6185V51.4741C115.237 53.4725 113.617 55.0926 111.619 55.0926C109.62 55.0926 108 53.4725 108 51.4741V37.6185ZM108 63.0204C108 61.0219 109.62 59.4019 111.619 59.4019C113.617 59.4019 115.237 61.0219 115.237 63.0204C115.237 65.0188 113.617 66.6389 111.619 66.6389C109.62 66.6389 108 65.0188 108 63.0204Z"
    fill="#2C3139" stroke="#E3E8EA" stroke-width="2" />
  <path d="M173.25 50.25H221.25" stroke="#3D444D" />
</svg>

<svg width="222" height="101" viewBox="0 0 222 101" fill="none" xmlns="http://www.w3.org/2000/svg"><path d="M.75 50.25h48" stroke="#3D444D"/><path d="m138.972 66.113 11.587-11.586a6.05 6.05 0 0 0 0-8.553l-35.282-35.282a6.05 6.05 0 0 0-8.554 0L71.442 45.974a6.048 6.048 0 0 0 0 8.553l35.281 35.282a6.049 6.049 0 0 0 8.554 0l12.355-12.356m6.804-6.804-2.683 2.683" stroke="#FC9F0F" stroke-width="2" stroke-linecap="round" stroke-linejoin="round"/><path d="m97.014 13.986 7.571-7.571a9.072 9.072 0 0 1 12.83 0l37.42 37.42a9.072 9.072 0 0 1 0 12.83l-37.42 37.42a9.072 9.072 0 0 1-12.83 0l-37.42-37.42a9.072 9.072 0 0 1 0-12.83L80.76 30.24m13.23-13.23-9.828 9.828" stroke="#FC9F0F" stroke-width="2" stroke-linecap="round" stroke-linejoin="round"/><path d="M108 37.618a3.619 3.619 0 0 1 7.237 0v13.856a3.618 3.618 0 1 1-7.237 0V37.62Zm0 25.402a3.619 3.619 0 1 1 7.237 0 3.619 3.619 0 0 1-7.237 0Z" fill="#2C3139" stroke="#E3E8EA" stroke-width="2"/><path d="M173.25 50.25h48" stroke="#3D444D"/></svg>
